aloe_vera/img/advantages_8.svg

<svg width="65" height="65" viewBox="0 0 65 65" fill="none" xmlns="http://www.w3.org/2000/svg">
<path d="M32.5001 0.951857C32.5001 0.951857 24.3236 0.800528 26.3088 8.90318C26.2661 8.72926 28.0304 8.03432 28.1645 7.98315C30.5692 7.06592 33.4645 6.97692 35.9407 7.68443C36.8907 7.95586 37.8684 8.3451 38.6914 8.90318C40.6765 0.800401 32.5001 0.951857 32.5001 0.951857Z" fill="#AA6A51"/>
<path d="M38.6908 8.9033C37.9585 8.40628 37.1036 8.04332 36.2549 7.77901C36.9745 2.71142 33.2525 1.40367 31.1721 1.06852C31.9512 0.942073 32.5 0.952102 32.5 0.952102C32.5 0.952102 40.6763 0.800392 38.6908 8.9033Z" fill="#935B44"/>
<path d="M54.2064 64.0485C54.2064 61.7705 52.6907 59.771 50.4976 59.1556L40.4236 56.3286C38.9196 55.9066 37.959 54.4377 38.1754 52.8907L38.6441 47.811H26.3559L26.8246 52.8907C27.0409 54.4377 26.0804 55.9066 24.5764 56.3286L14.5024 59.1556C12.3093 59.771 10.7936 61.7705 10.7936 64.0485H54.2064Z" fill="#FFCEBF"/>
<path d="M54.2061 64.048H51.5566C51.019 62.519 49.7645 61.2986 48.1368 60.8419L38.1634 57.7889C36.6584 57.3666 35.6985 55.8982 35.9148 54.3514L35.9882 47.8104H38.644L38.1748 52.8907C37.9586 54.4374 38.9198 55.907 40.4234 56.3282L50.498 59.1561C52.6909 59.7708 54.2061 61.7702 54.2061 64.048Z" fill="#FFB09E"/>
<path d="M45.6058 19.0435L32.5005 13.3926V13.3909L32.4985 13.3918L32.4965 13.3909V13.3926L19.3912 19.0435L17.4876 27.0123C17.5002 28.9549 17.3776 31.9785 17.4876 34.0694C17.755 39.1546 20.1173 43.4916 23.399 47.2556C24.4574 48.4697 25.7649 49.6275 27.1812 50.6628C30.3527 52.9808 34.6481 52.9808 37.8196 50.6628C39.2359 49.6276 40.5434 48.4697 41.6018 47.2556C44.8835 43.4915 47.2457 39.1546 47.5132 34.0694C47.6149 32.136 47.5132 27.0124 47.5132 27.0124L45.6058 19.0435Z" fill="#BBEC6C"/>
<path d="M47.5132 34.0695C47.2464 39.1548 44.8839 43.4914 41.602 47.2552C40.5435 48.4693 39.2357 49.6278 37.8193 50.6622C35.8692 52.0888 33.4915 52.6378 31.2126 52.3076C32.648 52.095 34.0442 51.5171 35.2723 50.5724C36.6887 49.4848 37.9964 48.2668 39.055 46.9895C39.072 46.9691 39.089 46.9485 39.1059 46.9279C40.9163 44.7343 42.476 42.3118 43.528 39.6614C44.6271 36.8927 44.9745 34.0702 45.0413 31.1236C45.0612 30.2427 45.0619 29.3613 45.0319 28.4806C44.9708 26.6912 44.7837 24.9022 44.3857 23.1547L43.2146 18.0128L45.6061 19.0436L47.5133 27.0124C47.5132 27.0125 47.6144 32.1357 47.5132 34.0695Z" fill="#A2E62E"/>
<path d="M25.8815 35.414C28.7125 35.414 31.0076 33.7706 31.0076 31.7434C31.0076 29.7161 28.7125 28.0728 25.8815 28.0728C23.0504 28.0728 20.7553 29.7161 20.7553 31.7434C20.7553 33.7706 23.0504 35.414 25.8815 35.414Z" fill="#FFCEBF"/>
<path d="M39.1186 35.414C41.9497 35.414 44.2447 33.7706 44.2447 31.7434C44.2447 29.7161 41.9497 28.0728 39.1186 28.0728C36.2875 28.0728 33.9925 29.7161 33.9925 31.7434C33.9925 33.7706 36.2875 35.414 39.1186 35.414Z" fill="#FFCEBF"/>
<path d="M32.5001 47.2942C35.3311 47.2942 37.6262 45.6508 37.6262 43.6236C37.6262 41.5964 35.3311 39.953 32.5001 39.953C29.669 39.953 27.3739 41.5964 27.3739 43.6236C27.3739 45.6508 29.669 47.2942 32.5001 47.2942Z" fill="#FFCEBF"/>
<path d="M17.407 32.896C18.7461 22.7604 27.4396 13.714 37.9411 13.714C40.0841 13.714 42.151 14.0397 44.0951 14.6444C44.0951 14.6444 40.1622 4.89325 26.4507 7.51001C26.4507 7.51001 18.6004 9.19595 15.1614 17.5695C13.9264 20.7361 13.4411 25.1085 14.8103 28.2296C15.1774 29.0666 15.6023 29.878 16.071 30.6618C17.407 32.896 17.407 32.896 17.407 32.896Z" fill="#C4E2FF"/>
<path d="M44.0948 14.6438C42.151 14.0393 40.0845 13.7143 37.9407 13.7143C35.123 13.7143 32.4355 14.3655 29.9857 15.514C26.8089 14.095 23.36 13.364 19.872 13.3412C19.0449 13.3361 18.2418 13.3564 17.569 13.4196C18.9171 11.7009 20.4361 10.4564 21.831 9.56608C24.3414 7.96241 26.451 7.5097 26.451 7.5097C34.8954 5.89854 39.6304 8.97804 42.0232 11.5807C43.5142 13.2046 44.0948 14.6438 44.0948 14.6438Z" fill="#B3DAFE"/>
<path d="M47.5274 32.8962C46.4733 24.9177 40.6671 18.7403 33.6712 14.8406C30.2955 12.9589 26.5197 11.9055 22.6594 11.7186C21.1834 11.6471 19.7812 11.6608 19.0587 11.8855C19.7504 11.1874 20.8614 10.3155 20.6321 10.5001C22.1517 9.44335 23.6228 8.3956 25.3613 7.81098C27.2388 7.17965 29.2147 6.86937 31.1918 6.80488C32.4343 6.76438 33.6791 6.82075 34.9148 6.95392C40.1965 7.52305 44.8872 9.7959 47.9872 14.2914C50.6125 18.0988 52.0626 23.8087 50.1201 28.2367C49.7535 29.0725 49.3293 29.8825 48.8613 30.6652C47.5274 32.8962 47.5274 32.8962 47.5274 32.8962Z" fill="#C4E2FF"/>
<path d="M50.1199 28.2368C49.7544 29.0728 49.3294 29.8821 48.8615 30.6651C47.5272 32.896 47.5272 32.896 47.5272 32.896C47.3755 31.7465 47.125 30.6347 46.7873 29.5622C47.0744 29.0349 47.3412 28.4948 47.5828 27.9434C49.5255 23.5157 48.076 17.8056 45.4505 13.9989C42.6277 9.90378 38.4846 7.65391 33.7773 6.85461C34.1568 6.87988 34.5361 6.91403 34.9156 6.95453C40.1969 7.52366 44.8877 9.79625 47.9874 14.291C50.6131 18.099 52.0624 23.8091 50.1199 28.2368Z" fill="#B3DAFE"/>
<path d="M31.9591 31.7434C31.9591 30.4476 31.2847 29.2511 30.0601 28.3744C28.9317 27.5663 27.4477 27.1213 25.8814 27.1213C24.3151 27.1213 22.8311 27.5663 21.7028 28.3744C20.4782 29.2511 19.8038 30.4478 19.8038 31.7434C19.8038 33.0393 20.4782 34.2358 21.7028 35.1125C22.8313 35.9205 24.3152 36.3656 25.8814 36.3656C27.4477 36.3656 28.9317 35.9206 30.0601 35.1125C31.2847 34.2357 31.9591 33.0391 31.9591 31.7434ZM25.8814 34.4624C23.6185 34.4624 21.7068 33.2172 21.7068 31.7434C21.7068 30.2696 23.6185 29.0244 25.8814 29.0244C28.1443 29.0244 30.056 30.2695 30.056 31.7434C30.056 33.2172 28.1443 34.4624 25.8814 34.4624Z" fill="black"/>
<path d="M27.8685 30.5877C27.4356 30.2895 26.8433 30.3987 26.545 30.8314C26.3869 31.0609 26.0827 31.2021 25.8053 31.1742C25.5824 31.152 25.3516 31.012 25.2172 30.8173C24.9188 30.3849 24.326 30.2763 23.8936 30.5747C23.4612 30.8732 23.3526 31.4657 23.651 31.8983C24.103 32.5531 24.8379 32.9903 25.6168 33.0679C25.7026 33.0764 25.7883 33.0807 25.874 33.0807C26.7526 33.0807 27.6104 32.639 28.112 31.9112C28.4102 31.4784 28.3013 30.8859 27.8685 30.5877Z" fill="black"/>
<path d="M45.1962 31.7434C45.1962 30.4476 44.5218 29.2511 43.2972 28.3744C42.1689 27.5663 40.6848 27.1213 39.1186 27.1213C37.5524 27.1213 36.0683 27.5663 34.9399 28.3744C33.7153 29.2511 33.041 30.4478 33.041 31.7434C33.041 33.0393 33.7153 34.2357 34.9399 35.1125C36.0683 35.9205 37.5524 36.3656 39.1186 36.3656C40.6849 36.3656 42.1689 35.9206 43.2972 35.1125C44.5218 34.2357 45.1962 33.0391 45.1962 31.7434ZM39.1186 34.4624C36.8558 34.4624 34.944 33.2172 34.944 31.7434C34.944 30.2696 36.8556 29.0244 39.1186 29.0244C41.3815 29.0244 43.2932 30.2695 43.2932 31.7434C43.2932 33.2172 41.3815 34.4624 39.1186 34.4624Z" fill="black"/>
<path d="M41.1063 30.5746C40.6736 30.2761 40.0811 30.3848 39.7827 30.8172C39.6484 31.0118 39.4176 31.1518 39.1946 31.1742C38.9172 31.202 38.6131 31.0608 38.455 30.8313C38.1568 30.3986 37.5642 30.2895 37.1315 30.5877C36.6989 30.8859 36.5898 31.4784 36.8879 31.9111C37.3895 32.639 38.2472 33.0806 39.1259 33.0806C39.2115 33.0806 39.2975 33.0764 39.3831 33.0678C40.1621 32.9904 40.8971 32.5531 41.349 31.8982C41.6475 31.4657 41.5388 30.8731 41.1063 30.5746Z" fill="black"/>
<path d="M36.6787 40.2545C35.5504 39.4464 34.0663 39.0015 32.5001 39.0015C30.9338 39.0015 29.4498 39.4464 28.3214 40.2545C27.0968 41.1312 26.4224 42.3279 26.4224 43.6236C26.4224 44.9194 27.0968 46.1159 28.3214 46.9927C29.4498 47.8006 30.9338 48.2457 32.5001 48.2457C34.0663 48.2457 35.5504 47.8007 36.6787 46.9927C37.9033 46.1158 38.5777 44.9193 38.5777 43.6236C38.5777 42.3278 37.9033 41.1312 36.6787 40.2545ZM32.5001 46.3425C30.2371 46.3425 28.3255 45.0974 28.3255 43.6236C28.3255 42.1498 30.2371 40.9046 32.5001 40.9046C34.763 40.9046 36.6747 42.1498 36.6747 43.6236C36.6747 45.0974 34.763 46.3425 32.5001 46.3425Z" fill="black"/>
<path d="M33.9361 42.5701C33.5933 42.7306 33.1689 42.8328 32.7411 42.8581C32.156 42.8926 31.5272 42.7841 31.0604 42.5679C30.5835 42.347 30.018 42.5545 29.7971 43.0314C29.5762 43.5082 29.7837 44.0738 30.2606 44.2947C30.9197 44.6 31.7297 44.7673 32.5259 44.7673C32.6354 44.7673 32.7444 44.7641 32.853 44.7577C33.5253 44.7181 34.1787 44.5576 34.7428 44.2938C35.2187 44.071 35.424 43.5045 35.2012 43.0286C34.9785 42.5527 34.4123 42.3475 33.9361 42.5701Z" fill="black"/>
<path d="M50.7546 58.2395L40.6805 55.4125C39.6399 55.1205 38.9679 54.0929 39.1176 53.0225C39.1196 53.0077 39.1214 52.993 39.1228 52.9782L39.3328 50.7025C40.4727 49.7939 41.4755 48.8484 42.3191 47.8809C46.2008 43.4286 48.2106 38.9271 48.4636 34.1192C48.4781 33.8433 48.4885 33.5058 48.4959 33.1304L49.678 31.1534C50.1804 30.3132 50.6223 29.4605 50.9916 28.6188C53.1487 23.7015 51.4304 17.6084 48.7706 13.7512C48.3797 13.1842 47.9554 12.6386 47.5099 12.1295C47.1637 11.734 46.5627 11.694 46.1673 12.0401C45.7718 12.3862 45.7318 12.9873 46.0779 13.3828C46.4755 13.837 46.8544 14.3244 47.204 14.8313C50.4792 19.5812 50.5911 24.7946 49.2489 27.8543C48.9116 28.6232 48.5065 29.4046 48.0448 30.1766L47.9839 30.2786C47.1964 27.2519 45.7164 24.3887 43.5664 21.7389C41.1704 18.786 37.9089 16.1131 34.1344 14.0093C30.6795 12.0837 26.7275 10.9628 22.7055 10.7682C22.4442 10.7555 22.1946 10.7459 21.9563 10.7393C23.1634 9.9092 24.3418 9.15763 25.6647 8.71279C28.5632 7.73817 31.7962 7.57491 34.813 7.89991C37.908 8.23342 40.634 9.15535 42.9151 10.6401C43.3557 10.9265 43.945 10.8021 44.2316 10.3617C44.5183 9.92126 44.3936 9.33181 43.9532 9.04503C42.722 8.24383 41.3786 7.59192 39.9341 7.09008C40.0438 5.29369 39.6248 3.78777 38.6746 2.59949C36.6099 0.0172634 32.8293 -0.00393766 32.5 0.000251793C32.1705 -0.00406461 28.39 0.0175174 26.3254 2.59949C25.4074 3.74753 24.9859 5.19276 25.0573 6.9093C24.5902 7.06646 24.1423 7.25448 23.7086 7.46395C20.9552 8.69057 16.649 11.4428 14.2812 17.2079C14.2791 17.2132 14.2769 17.2184 14.2749 17.2236C13.5964 18.9629 13.1647 20.9659 13.0592 22.8636C12.9382 25.0366 13.2425 27.0243 13.9388 28.6118C14.3087 29.4549 14.7512 30.3089 15.2542 31.1501L16.5049 33.2415C16.5123 33.547 16.5228 33.8414 16.5374 34.1193C16.7903 38.9271 18.8003 43.4286 22.682 47.8809C23.5252 48.848 24.5277 49.7933 25.6673 50.7016L25.8774 52.978C25.8788 52.9929 25.8804 53.0076 25.8826 53.0224C26.0323 54.0928 25.3603 55.1204 24.3197 55.4124L21.7682 56.1284C21.2621 56.2703 20.9671 56.7957 21.1091 57.3016C21.2511 57.8075 21.7762 58.1024 22.2823 57.9606L24.8338 57.2446C26.7795 56.6985 28.0384 54.7831 27.7705 52.7824L27.7097 52.1238C29.2037 52.9464 30.8518 53.3589 32.5007 53.3589C34.1488 53.3589 35.7969 52.9464 37.2906 52.1243L37.2299 52.7824C36.962 54.7832 38.2209 56.6985 40.1666 57.2446L50.2407 60.0715C51.7022 60.4817 52.8008 61.6632 53.1431 63.0967H11.8571C12.1993 61.663 13.298 60.4816 14.7595 60.0715L18.0621 59.1448C18.5682 59.0029 18.8632 58.4775 18.7212 57.9716C18.5791 57.4657 18.0538 57.1703 17.5479 57.3126L14.2452 58.2394C11.6525 58.9669 9.84193 61.3557 9.84193 64.0484C9.84193 64.5738 10.268 64.9999 10.7934 64.9999H54.2062C54.7317 64.9999 55.1577 64.5738 55.1577 64.0484C55.1578 61.3557 53.3472 58.9671 50.7546 58.2395ZM27.8061 3.79501C29.2851 1.93603 32.2801 1.90315 32.4749 1.90315H32.4847C32.4943 1.90328 32.5059 1.90328 32.5153 1.90315C32.5458 1.90303 35.6723 1.88246 37.194 3.79501C37.7602 4.50671 38.0443 5.4242 38.0481 6.53389C37.0763 6.29662 36.0652 6.12066 35.0169 6.00767C33.6938 5.86523 32.3967 5.81331 31.1609 5.85368C29.6954 5.90154 28.2884 6.08093 26.9536 6.38269C26.9817 5.34054 27.2656 4.47433 27.8061 3.79501ZM16.8876 30.1735C16.4253 29.4004 16.0196 28.6178 15.6815 27.8474C14.4002 24.9264 14.9404 20.7601 16.0446 17.9234C16.8523 15.9595 17.9685 14.2415 19.3778 12.7834C19.7006 12.6924 20.5352 12.5685 22.6133 12.669C25.2702 12.7976 27.8919 13.3635 30.3375 14.3215C27.8976 15.3474 25.6041 16.8619 23.5769 18.8198C20.3102 21.9748 18.0065 25.9679 16.9399 30.2617L16.8876 30.1735ZM37.2582 49.8945C34.4126 51.9746 30.5885 51.9746 27.7428 49.8945C26.315 48.8509 25.0948 47.7527 24.1163 46.6303C20.5249 42.5111 18.6675 38.3861 18.4378 34.0192C18.4163 33.6106 18.4043 33.1598 18.3982 32.6874C19.0901 28.0618 21.4465 23.5231 24.8992 20.1886C27.227 17.9404 29.9318 16.3328 32.7973 15.4507C32.9347 15.5236 33.0723 15.5961 33.208 15.6716C43.6186 21.4745 46.0571 29.0321 46.5842 33.0206C46.5862 33.0361 46.5911 33.0507 46.5938 33.066C46.587 33.4307 46.5771 33.7566 46.5632 34.0192C46.3336 38.3859 44.4761 42.511 40.8848 46.6303C39.906 47.7528 38.6859 48.8511 37.2582 49.8945Z" fill="black"/>
</svg>

<svg width="65" height="65" fill="none" xmlns="http://www.w3.org/2000/svg"><path d="M32.5.952S24.324.8 26.31 8.903c-.043-.174 1.721-.869 1.855-.92 2.405-.917 5.3-1.006 7.777-.299.95.272 1.927.661 2.75 1.22C40.676.8 32.501.951 32.501.951z" fill="#AA6A51"/><path d="M38.69 8.903c-.731-.497-1.586-.86-2.435-1.124.72-5.068-3.003-6.375-5.083-6.71C31.952.942 32.5.952 32.5.952S40.676.8 38.69 8.903z" fill="#935B44"/><path d="M54.206 64.049a5.082 5.082 0 00-3.708-4.893l-10.074-2.827a3.122 3.122 0 01-2.249-3.438l.47-5.08h-12.29l.47 5.08a3.122 3.122 0 01-2.249 3.438l-10.074 2.827a5.082 5.082 0 00-3.708 4.893h43.412z" fill="#FFCEBF"/><path d="M54.206 64.048h-2.65a5.08 5.08 0 00-3.42-3.206l-9.973-3.053a3.12 3.12 0 01-2.248-3.438l.073-6.54h2.656l-.47 5.08a3.122 3.122 0 002.25 3.437l10.074 2.828a5.08 5.08 0 013.708 4.892z" fill="#FFB09E"/><path d="M45.606 19.044L32.5 13.393v-.002h-.005v.002l-13.105 5.65-1.903 7.97c.012 1.942-.11 4.965 0 7.056.267 5.086 2.63 9.423 5.911 13.187 1.058 1.214 2.366 2.371 3.782 3.407a9.007 9.007 0 0010.639 0c1.416-1.035 2.723-2.193 3.782-3.407 3.282-3.764 5.644-8.101 5.911-13.187.102-1.933 0-7.057 0-7.057l-1.907-7.968z" fill="#BBEC6C"/><path d="M47.513 34.07c-.267 5.085-2.63 9.421-5.911 13.185-1.058 1.214-2.366 2.373-3.783 3.407a8.994 8.994 0 01-6.606 1.646 8.749 8.749 0 004.06-1.736c1.416-1.087 2.723-2.305 3.782-3.583l.05-.061c1.811-2.194 3.371-4.616 4.423-7.267 1.1-2.768 1.447-5.59 1.513-8.537.02-.881.02-1.763-.01-2.643-.06-1.79-.247-3.579-.645-5.326l-1.171-5.142 2.391 1.03 1.907 7.97s.101 5.123 0 7.056z" fill="#A2E62E"/><path d="M25.881 35.414c2.831 0 5.127-1.643 5.127-3.67 0-2.028-2.296-3.671-5.127-3.671-2.83 0-5.126 1.643-5.126 3.67 0 2.028 2.295 3.671 5.127 3.671zm13.238 0c2.83 0 5.126-1.643 5.126-3.67 0-2.028-2.295-3.671-5.126-3.671-2.831 0-5.127 1.643-5.127 3.67 0 2.028 2.296 3.671 5.127 3.671zM32.5 47.294c2.831 0 5.126-1.643 5.126-3.67 0-2.028-2.295-3.671-5.126-3.671-2.831 0-5.126 1.643-5.126 3.67 0 2.028 2.295 3.671 5.126 3.671z" fill="#FFCEBF"/><path d="M17.407 32.896c1.34-10.136 10.033-19.182 20.534-19.182 2.143 0 4.21.326 6.154.93 0 0-3.933-9.75-17.644-7.134 0 0-7.85 1.686-11.29 10.06-1.235 3.166-1.72 7.538-.35 10.66a21.61 21.61 0 001.26 2.432l1.336 2.234z" fill="#C4E2FF"/><path d="M44.095 14.644a20.689 20.689 0 00-6.154-.93c-2.818 0-5.506.652-7.955 1.8a25.204 25.204 0 00-10.114-2.173c-.827-.005-1.63.015-2.303.079a17.083 17.083 0 014.262-3.854c2.51-1.604 4.62-2.056 4.62-2.056 8.444-1.611 13.18 1.468 15.572 4.07 1.491 1.625 2.072 3.064 2.072 3.064z" fill="#B3DAFE"/><path d="M47.527 32.896c-1.054-7.978-6.86-14.156-13.856-18.055a25.104 25.104 0 00-11.012-3.122c-1.476-.072-2.878-.058-3.6.167.691-.699 1.802-1.57 1.573-1.386 1.52-1.057 2.99-2.104 4.73-2.689 1.877-.631 3.853-.942 5.83-1.006 1.242-.04 2.487.016 3.723.149 5.282.569 9.972 2.842 13.072 7.337 2.625 3.808 4.076 9.518 2.133 13.946-.366.836-.79 1.646-1.259 2.428l-1.334 2.231z" fill="#C4E2FF"/><path d="M50.12 28.237c-.366.836-.79 1.645-1.258 2.428l-1.335 2.231a19.642 19.642 0 00-.74-3.334c.287-.527.554-1.067.796-1.619 1.943-4.427.493-10.137-2.133-13.944-2.822-4.095-6.965-6.345-11.673-7.144.38.025.76.059 1.139.1 5.28.569 9.972 2.841 13.071 7.336 2.626 3.808 4.075 9.518 2.133 13.946z" fill="#B3DAFE"/><path d="M31.96 31.743c0-1.295-.675-2.492-1.9-3.369-1.128-.808-2.612-1.253-4.179-1.253-1.566 0-3.05.445-4.178 1.253-1.225.877-1.9 2.074-1.9 3.37 0 1.295.675 2.492 1.9 3.368 1.128.808 2.612 1.254 4.178 1.254 1.567 0 3.05-.445 4.18-1.254 1.224-.876 1.898-2.073 1.898-3.369zm-6.079 2.72c-2.262 0-4.174-1.246-4.174-2.72 0-1.473 1.912-2.719 4.174-2.719 2.263 0 4.175 1.245 4.175 2.72 0 1.473-1.912 2.718-4.175 2.718z" fill="#000"/><path d="M27.869 30.588a.952.952 0 00-1.324.243.834.834 0 01-.74.343.852.852 0 01-.588-.357.952.952 0 00-1.566 1.081 2.754 2.754 0 001.966 1.17 2.747 2.747 0 002.495-1.157.951.951 0 00-.243-1.323zm17.327 1.155c0-1.295-.674-2.492-1.899-3.369-1.128-.808-2.612-1.253-4.178-1.253-1.567 0-3.05.445-4.18 1.253-1.224.877-1.898 2.074-1.898 3.37 0 1.295.674 2.492 1.899 3.368 1.128.808 2.612 1.254 4.179 1.254 1.566 0 3.05-.445 4.178-1.254 1.225-.876 1.9-2.073 1.9-3.369zm-6.077 2.72c-2.263 0-4.175-1.246-4.175-2.72 0-1.473 1.912-2.719 4.175-2.719s4.174 1.245 4.174 2.72c0 1.473-1.911 2.718-4.174 2.718z" fill="#000"/><path d="M41.106 30.575a.952.952 0 00-1.323.242.853.853 0 01-.588.357.834.834 0 01-.74-.343.952.952 0 00-1.567 1.08 2.746 2.746 0 002.495 1.157 2.753 2.753 0 001.966-1.17.952.952 0 00-.243-1.323zm-4.427 9.68C35.55 39.446 34.066 39 32.5 39c-1.566 0-3.05.445-4.179 1.254-1.224.876-1.899 2.073-1.899 3.369 0 1.295.675 2.492 1.9 3.369 1.128.808 2.612 1.253 4.178 1.253 1.566 0 3.05-.445 4.179-1.253 1.224-.877 1.899-2.074 1.899-3.37 0-1.295-.675-2.492-1.9-3.368zM32.5 46.341c-2.263 0-4.174-1.245-4.174-2.718 0-1.474 1.911-2.72 4.174-2.72 2.263 0 4.175 1.246 4.175 2.72 0 1.473-1.912 2.718-4.175 2.718z" fill="#000"/><path d="M33.936 42.57c-.343.16-.767.263-1.195.288-.585.035-1.214-.074-1.68-.29a.951.951 0 10-.8 1.727c.659.305 1.469.472 2.265.472.11 0 .218-.003.327-.01a5.232 5.232 0 001.89-.463.952.952 0 00-.807-1.724z" fill="#000"/><path d="M50.755 58.24L40.68 55.411a2.178 2.178 0 01-1.557-2.434l.21-2.276a22.867 22.867 0 002.986-2.821c3.882-4.452 5.892-8.954 6.145-13.762.014-.276.025-.613.032-.989l1.182-1.977c.502-.84.944-1.692 1.314-2.534 2.157-4.918.438-11.01-2.221-14.868a17.898 17.898 0 00-1.261-1.621.951.951 0 10-1.432 1.253c.397.454.776.941 1.126 1.448 3.275 4.75 3.387 9.964 2.045 13.023-.337.77-.742 1.55-1.204 2.323l-.061.102c-.788-3.027-2.268-5.89-4.418-8.54-2.396-2.953-5.657-5.626-9.432-7.73-3.454-1.925-7.407-3.046-11.428-3.24a30.897 30.897 0 00-.75-.03c1.207-.83 2.386-1.581 3.709-2.026 2.898-.975 6.131-1.138 9.148-.813 3.095.333 5.821 1.255 8.102 2.74a.952.952 0 001.038-1.595 18.434 18.434 0 00-4.019-1.955c.11-1.796-.31-3.302-1.26-4.49C36.61.016 32.83-.005 32.5 0c-.33-.004-4.11.018-6.175 2.6-.918 1.148-1.34 2.593-1.268 4.31-.467.156-.915.344-1.348.554-2.754 1.227-7.06 3.979-9.428 9.744l-.006.016a18.806 18.806 0 00-1.216 5.64c-.12 2.173.184 4.16.88 5.748.37.843.812 1.697 1.315 2.538l1.25 2.092c.008.305.019.6.033.877.253 4.808 2.263 9.31 6.145 13.762a22.852 22.852 0 002.985 2.82l.21 2.277c.002.015.003.03.006.044a2.178 2.178 0 01-1.563 2.39l-2.552.716a.951.951 0 10.514 1.833l2.552-.716a4.088 4.088 0 002.936-4.463l-.06-.658a9.925 9.925 0 004.79 1.235 9.928 9.928 0 004.79-1.235l-.06.658a4.088 4.088 0 002.937 4.463l10.074 2.827a4.148 4.148 0 012.902 3.025H11.857a4.148 4.148 0 012.902-3.026l3.303-.926a.951.951 0 10-.514-1.832l-3.303.926a6.054 6.054 0 00-4.403 5.81c0 .525.426.95.951.95h43.413a.952.952 0 00.952-.95 6.054 6.054 0 00-4.403-5.81zM27.806 3.794c1.48-1.859 4.474-1.892 4.669-1.892h.04c.03 0 3.157-.02 4.679 1.892.566.712.85 1.63.854 2.739a23.3 23.3 0 00-3.031-.526 27.729 27.729 0 00-3.856-.154 22.39 22.39 0 00-4.207.529c.028-1.042.312-1.909.852-2.588zm-10.918 26.38a21.006 21.006 0 01-1.207-2.327c-1.28-2.92-.74-7.087.364-9.924.807-1.963 1.923-3.681 3.333-5.14.323-.09 1.157-.214 3.235-.114 2.657.129 5.279.694 7.724 1.652-2.44 1.026-4.733 2.54-6.76 4.499-3.267 3.155-5.57 7.148-6.637 11.442l-.052-.088zm20.37 19.72a8.035 8.035 0 01-9.515 0c-1.428-1.043-2.648-2.141-3.627-3.264-3.591-4.119-5.448-8.244-5.678-12.61-.022-.41-.034-.86-.04-1.333.692-4.625 3.049-9.164 6.501-12.498 2.328-2.249 5.033-3.856 7.898-4.738.138.073.275.145.411.22 10.41 5.803 12.85 13.361 13.376 17.35.002.015.007.03.01.045-.007.365-.017.69-.03.953-.23 4.367-2.088 8.492-5.68 12.611-.978 1.123-2.198 2.221-3.626 3.264z" fill="#000"/></svg>
